developer-docs-site/static/img/socials/linkedin.svg

<svg width="20" height="20" viewBox="0 0 20 20" fill="none" xmlns="http://www.w3.org/2000/svg">
<path fill-rule="evenodd" clip-rule="evenodd" d="M3.75 0H16.25C18.3203 0 20 1.67969 20 3.75V16.25C20 18.3203 18.3203 20 16.25 20H3.75C1.67969 20 0 18.3203 0 16.25V3.75C0 1.67969 1.67969 0 3.75 0ZM3.07662 16.9772H6.18359L6.16556 7.67432H3.05859L3.07662 16.9772ZM4.55198 6.45741H4.53395C3.51833 6.45741 2.86328 5.75729 2.86328 4.88589C2.86328 3.99346 3.53936 3.31738 4.57302 3.31738C5.60667 3.31738 6.24068 3.99346 6.26172 4.88589C6.26172 5.75729 5.60367 6.45741 4.55198 6.45741ZM13.8222 16.9771H16.9532V11.5744C16.9532 8.78294 15.4659 7.48486 13.4767 7.48486C11.8721 7.48486 11.202 8.36527 10.7994 8.98727L10.7814 7.67417H7.63232L7.65035 16.9771H10.7994V11.7096C10.7994 11.4362 10.8204 11.1688 10.9016 10.9734C11.1179 10.4296 11.5686 9.86768 12.404 9.86768C13.4977 9.86768 13.8222 10.7 13.8222 11.923V16.9771Z" fill="#FBFBFB"/>
</svg>

<svg width="100%" height="100%" viewBox="0 0 20 20" fill="none" xmlns="http://www.w3.org/2000/svg"><path fill-rule="evenodd" clip-rule="evenodd" d="M3.75 0h12.5C18.32 0 20 1.68 20 3.75v12.5c0 2.07-1.68 3.75-3.75 3.75H3.75C1.68 20 0 18.32 0 16.25V3.75C0 1.68 1.68 0 3.75 0Zm-.673 16.977h3.107l-.018-9.303H3.059l.018 9.303Zm1.475-10.52h-.018c-1.016 0-1.67-.7-1.67-1.571 0-.893.675-1.569 1.709-1.569s1.668.676 1.689 1.569c0 .871-.658 1.571-1.71 1.571Zm9.27 10.52h3.131v-5.403c0-2.791-1.487-4.09-3.476-4.09-1.605 0-2.275.881-2.678 1.503l-.018-1.313H7.632l.018 9.303h3.15V11.71c0-.274.02-.541.102-.737.216-.543.667-1.105 1.502-1.105 1.094 0 1.418.832 1.418 2.055v5.054Z" fill="#fff"/></svg>
